X:15
T:Lent V A
M:4/4
L:1/8
K:F min
V:1 clef=treble
[V:1] [M:5/4] F2 FG AB AG FE | [M:4/4] G2 FE F4 | G2 GA BA G2 | AA AB c3 A | B2 AG F F3 ||
w: I am the re-sur-rec-tion and the | life says the Lord; | all who be-lieve in me, | e-ven if they die, will | not die for-e-ver. ||

